X:287
T:Johnny Todd
M:2/4
L:1/8
K:G
GB | dd ee | dB GB | d>d cB | A2 dB | 
G>B AG | FD GB | dA cB | G2 || 

